Adwaita++-Dark/actions/22/document-open-recent.svg

<svg fill="none" height="22" viewBox="0 0 22 22" width="22" xmlns="http://www.w3.org/2000/svg">
  <g fill="#e6ddff">
    <path d="m11 3c-4.41353 0-8 3.58643-8 8 0 4.4135 3.58647 8 8 8 4.4135 0 8-3.5865 8-8 0-4.41357-3.5865-8-8-8zm0 2.10852c3.2585 0 5.8915 2.63292 5.8915 5.89148 0 3.2585-2.633 5.8915-5.8915 5.8915-3.25852 0-5.89147-2.633-5.89147-5.8915 0-3.25856 2.63295-5.89148 5.89147-5.89148z"/>
    <path d="m13.8304 8.5082c-.1121.03232-.2125.1006-.2883.19594l-3.0634 3.33096-1.91006-2.07695c-.04551-.08091-.1073-.1495-.18073-.20068-.07343-.05119-.15659-.08365-.2432-.09483-.08662-.01119-.17443-.00083-.25685.03023-.08241.03105-.15728.08203-.21895.1491-.06168.06706-.10856.14842-.13712.23803-.02856.0896-.03805.1851-.02776.2793.01028.0942.04009.1846.08716.2644.04707.0799.11018.1471.18459.1966l2.30652 2.508c.1071.1103.249.1717.3964.1717.1475 0 .2894-.0614.3965-.1717l3.4597-3.76203c.0852-.09434.1407-.21555.1587-.34626.018-.13072-.0024-.26428-.0583-.38162-.056-.11734-.1446-.21241-.2532-.27172-.1087-.0593-.2318-.07978-.3517-.05847z"/>
  </g>
</svg>

<svg xmlns="http://www.w3.org/2000/svg" fill="none" width="22" height="22" viewBox="0 0 22 22">
 <path fill="#E6DDFF" d="M11 3C6.58647 3 3 6.58643 3 11C3 15.4135 6.58647 19 11 19C15.4135 19 19 15.4135 19 11C19 6.58643 15.4135 3 11 3ZM11 5.10852C14.2585 5.10852 16.8915 7.74144 16.8915 11C16.8915 14.2585 14.2585 16.8915 11 16.8915C7.74148 16.8915 5.10853 14.2585 5.10853 11C5.10853 7.74144 7.74148 5.10852 11 5.10852Z"/>
 <path fill="#E6DDFF" d="M13.8304 8.5082C13.7183 8.54052 13.6179 8.6088 13.5421 8.70414L10.4787 12.0351L8.56864 9.95815C8.52313 9.87724 8.46134 9.80865 8.38791 9.75747C8.31448 9.70628 8.23132 9.67382 8.14471 9.66264C8.05809 9.65145 7.97028 9.66181 7.88786 9.69287C7.80545 9.72392 7.73058 9.7749 7.66891 9.84197C7.60723 9.90903 7.56035 9.99039 7.53179 10.08C7.50323 10.1696 7.49374 10.2651 7.50403 10.3593C7.51431 10.4535 7.54412 10.5439 7.59119 10.6237C7.63826 10.7036 7.70137 10.7708 7.77578 10.8203L10.0823 13.3283C10.1894 13.4386 10.3313 13.5 10.4787 13.5C10.6262 13.5 10.7681 13.4386 10.8752 13.3283L14.3349 9.56627C14.4201 9.47193 14.4756 9.35072 14.4936 9.22001C14.5116 9.08929 14.4912 8.95573 14.4353 8.83839C14.3793 8.72105 14.2907 8.62598 14.1821 8.56667C14.0734 8.50737 13.9503 8.48689 13.8304 8.5082Z"/>
</svg>
